X: 4069
M: C|
L: 1/8
K: D
|:\
(3(uABc) |\
dBcA BGFE | DGFE DGFD (EB,)B,2 |\
(3(ABc) |\
dcBc dfed | cBAB cedc |
dcBc dfed | ceAc d2 (3(ABc) |\
defa gfed | cdef ecAc |\
dfed cedc | BABc d2 |]


